icons/svg/format-color.svg

﻿<?xml version="1.0" encoding="utf-8"?>
<!DOCTYPE svg PUBLIC "-//W3C//DTD SVG 1.1//EN" "http://www.w3.org/Graphics/SVG/1.1/DTD/svg11.dtd">
<svg xmlns="http://www.w3.org/2000/svg" xmlns:xlink="http://www.w3.org/1999/xlink" version="1.1" baseProfile="full" width="24" height="24" viewBox="0 0 24.00 24.00" enable-background="new 0 0 24.00 24.00" xml:space="preserve">
	<path fill="#000000" fill-opacity="1" stroke-width="0.2" stroke-linejoin="round" d="M 9.62439,11.998L 11.9994,5.66504L 14.3744,11.998M 10.9994,2.99805L 5.49939,16.998L 7.74939,16.998L 8.87439,13.998L 15.1244,13.998L 16.2494,16.998L 18.4994,16.998L 12.9994,2.99805L 10.9994,2.99805 Z "/>
</svg>

<svg xmlns="http://www.w3.org/2000/svg" version="1.1" baseProfile="full" width="24" height="24" viewBox="0 0 24.00 24.00" xml:space="preserve"><path fill="#000" fill-opacity="1" stroke-width=".2" stroke-linejoin="round" d="M9.624 11.998L12 5.665l2.374 6.333m-3.375-9l-5.5 14h2.25l1.124-3h6.25l1.125 3h2.25l-5.5-14h-2z"/></svg>
